X:464
T:John MacDonald of Glencoe 
C:Joe Buchanan's Scottish Tome - Page 002.0
I:002 0
C:P.M. W. Lawrie
R:Polka
Z:Carl Allison
L:1/16
M:2/4
K:A
ed | "A" ceA2 A2a2 | (c<A)(c<e) "D" f2ed | "A" c2e2 "A" A2c2 | "G" B<=GBc d>fed |
"A" ceA2 A2a2 | (e<A)(c<e) "D" f2ed | "A" c2fA "G" cBd=G | "A" {G}B2A2 A4 :|
cd | "A" eAc2 a2=gf | e2A2 c2e2 | "D" c2eA "A" c2ec | "G" (B<=G)Bc dcd |
"A" e2Ac a2=gf | e2A2 "D" d4 | "A" d2fd "G" c<Be>=B | "A" {g}B2A2 G2Bc |
"A" e2Ac a2=gg | e2A2 c2e2 | "D" d2fd "A" (c>A)e>=c | (B<=G)Bc e2ce |
ed | "A" c2Ac (c<e)A>c | "D" d2fa "A" e2cA | c2Ac "G" (c<e)A>c | B2=GB (B<e)d>
"A" e2a2 c2e2 | A2>A2 | c2eA "G" (c>B)d>=G | "A" {G}B2=GB A4 |]
"A" c2Ac (c<e)A>c | "D" d2fa "A" e2cA | c2eA (c>B)d>=G | "A" {G}(BA) A2ed |
"A" c2Ac c<eA>c | "D" d2fa "A" e2cA | c<eA>c c2Ac | "G" B2GB (B<e)d>B |
"A" c2Ac c<eA>c | "D" d2fa "A" e2cA | c2eA "G" (c>A)d>=G | "A" {G}(B2G2) A4 |]
%%newpage
T:John MacDonald of Glencoe (cont)
cd | "A" e2a2 a=gf | e2A2 c2e2 | "D" c2eA "A" (c<A)e>c | "G" B<=GBc d2cd |
"A" e2a2 a2(=gf) | e2A2 c2e2 | c2eA "G" (c<B)d>=G | "A" {G}(B2A2) A2cd |
"A" e2a2 a2(=gf) | e2A2 c2e2 | "D" c2eA "A" (c<B)d>=G | "G" B<=GBc d2(ec) |
"A" d>cB>c A>Bcd | e>Ac<e "" f2(ed) | "A" c2eA (c>B)d>G | "A" {G}B2A2 A4 |]

